images/heading-img.svg

<svg width="420" height="360" fill="none" xmlns="http://www.w3.org/2000/svg"><path d="M326.294 281.91l.93-.377-.381-.929L216.968 12.511l194.975 331.033-171.568-26.783 85.919-34.851zM190.329 120.396l-.778-.59-.608.764L7.921 348.245 201.785 16.593 264.01 176.22l-73.681-55.824zm-76.204 196.455l-.134.988.987.137 290.724 40.393-388.665.628 109.379-132.833-12.291 90.687z" fill="url(#paint0_linear_2634_7898)" stroke="#F6780F" stroke-width="2"/><defs><linearGradient id="paint0_linear_2634_7898" x1="210" y1="0" x2="210" y2="360" gradientUnits="userSpaceOnUse"><stop stop-color="#EEAC25"/><stop offset="1" stop-color="#BC570D"/></linearGradient></defs></svg>

<svg width="420" height="360" viewBox="0 0 420 360" fill="none" xmlns="http://www.w3.org/2000/svg">
<path d="M326.294 281.91L327.224 281.533L326.843 280.604L216.968 12.5107L411.943 343.544L240.375 316.761L326.294 281.91ZM190.329 120.396L189.551 119.806L188.943 120.57L7.92099 348.245L201.785 16.5926L264.01 176.22L190.329 120.396ZM114.125 316.851L113.991 317.839L114.978 317.976L405.702 358.369L17.0374 358.997L126.416 226.164L114.125 316.851Z" fill="url(#paint0_linear_2634_7898)" stroke="#F6780F" stroke-width="2"/>
<defs>
<linearGradient id="paint0_linear_2634_7898" x1="210" y1="0" x2="210" y2="360" gradientUnits="userSpaceOnUse">
<stop stop-color="#EEAC25"/>
<stop offset="1" stop-color="#BC570D"/>
</linearGradient>
</defs>
</svg>
